X:22
T:GB/7d/22 Old Woman
%%VWML:GB-7d-22-0
F:http://www.vwml.org/record/GB/7d/22
T:Bucknell Morris Tunes 6 of 8
C:Transcribed by Simon Furey and Lewis Jones
L:1/8
M:6/8
I:linebreak $
K:C
C2 C C>AA | AGF EGC | FEF G3 | A>CC C3 :: ccc Gcc | Gcc cBA |$ GGG G2 G | GAF EFG | C2 C CAA |
AGF EGC | FEF G3 | A>CC C3 :|

